assets/New button/Flat/new_button_flat.svg

<svg width="32" height="32" viewBox="0 0 32 32" fill="none" xmlns="http://www.w3.org/2000/svg">
<path d="M2 6C2 3.79086 3.79086 2 6 2H26C28.2091 2 30 3.79086 30 6V26C30 28.2091 28.2091 30 26 30H6C3.79086 30 2 28.2091 2 26V6Z" fill="#00A6ED"/>
<path d="M6.43434 12.4017C6.2578 12.1169 5.91373 11.9838 5.59145 12.0756C5.26917 12.1673 5.04688 12.4618 5.04688 12.7969V19.25C5.04688 19.6642 5.38266 20 5.79688 20C6.21109 20 6.54688 19.6642 6.54688 19.25V15.8693C6.54688 15.7435 6.71183 15.6965 6.77812 15.8035L9.15941 19.6451C9.33595 19.93 9.68002 20.0631 10.0023 19.9713C10.3246 19.8795 10.5469 19.5851 10.5469 19.25V12.7969C10.5469 12.3827 10.2111 12.0469 9.79688 12.0469C9.38266 12.0469 9.04688 12.3827 9.04688 12.7969V16.1776C9.04688 16.3034 8.88192 16.3504 8.81563 16.2434L6.43434 12.4017Z" fill="white"/>
<path d="M12.7708 12.0866C12.3565 12.0866 12.0208 12.4224 12.0208 12.8366V19.2445C12.0208 19.6587 12.3565 19.9945 12.7708 19.9945H16.4034C16.8176 19.9945 17.1534 19.6587 17.1534 19.2445C17.1534 18.8302 16.8176 18.4945 16.4034 18.4945H13.6458C13.5767 18.4945 13.5208 18.4385 13.5208 18.3695V17.0394C13.5208 16.9704 13.5767 16.9144 13.6458 16.9144H16.3545C16.7687 16.9144 17.1045 16.5786 17.1045 16.1644C17.1045 15.7502 16.7687 15.4144 16.3545 15.4144H13.6458C13.5767 15.4144 13.5208 15.3585 13.5208 15.2894V13.7116C13.5208 13.6426 13.5767 13.5866 13.6458 13.5866H16.4034C16.8176 13.5866 17.1534 13.2508 17.1534 12.8366C17.1534 12.4224 16.8176 12.0866 16.4034 12.0866H12.7708Z" fill="white"/>
<path d="M18.7518 12.1369C19.1508 12.0257 19.5644 12.2591 19.6756 12.6581L20.601 15.9799C20.6348 16.1011 20.8063 16.1021 20.8415 15.9813L21.8111 12.6498C21.9038 12.3311 22.195 12.1113 22.5269 12.1094C22.8588 12.1075 23.1525 12.324 23.2489 12.6416L24.2587 15.9692C24.2953 16.0898 24.4671 16.0866 24.4992 15.9648L25.3685 12.6682C25.4741 12.2676 25.8844 12.0286 26.2849 12.1342C26.6854 12.2398 26.9245 12.6501 26.8189 13.0506L25.1627 19.3319C25.0771 19.6562 24.7866 19.8843 24.4513 19.8905C24.1159 19.8967 23.8172 19.6794 23.7198 19.3584L22.6684 15.8939C22.6323 15.775 22.4635 15.7759 22.4287 15.8953L21.4232 19.3502C21.3295 19.672 21.0338 19.8925 20.6988 19.8906C20.3637 19.8887 20.0705 19.6647 19.9806 19.3419L18.2306 13.0607C18.1194 12.6617 18.3528 12.2481 18.7518 12.1369Z" fill="white"/>
</svg>

<svg xmlns="http://www.w3.org/2000/svg" width="32" height="32" fill="none"><path fill="#00A6ED" d="M2 6a4 4 0 0 1 4-4h20a4 4 0 0 1 4 4v20a4 4 0 0 1-4 4H6a4 4 0 0 1-4-4V6Z"/><path fill="#fff" d="M6.434 12.402a.75.75 0 0 0-1.387.395v6.453a.75.75 0 0 0 1.5 0v-3.38c0-.127.165-.173.231-.066l2.381 3.841a.75.75 0 0 0 1.388-.395v-6.453a.75.75 0 0 0-1.5 0v3.38c0 .126-.165.173-.231.066l-2.382-3.841ZM12.77 12.087a.75.75 0 0 0-.75.75v6.407c0 .415.337.75.75.75h3.633a.75.75 0 0 0 0-1.5h-2.757a.125.125 0 0 1-.125-.125v-1.33c0-.069.056-.125.125-.125h2.709a.75.75 0 0 0 0-1.5h-2.71a.125.125 0 0 1-.124-.125v-1.577c0-.07.056-.125.125-.125h2.757a.75.75 0 0 0 0-1.5h-3.632ZM18.752 12.137a.75.75 0 0 1 .924.521l.925 3.322c.034.121.205.122.24.001l.97-3.331a.75.75 0 0 1 1.438-.008l1.01 3.327c.036.12.208.118.24-.004l.87-3.297a.75.75 0 1 1 1.45.383l-1.656 6.28a.75.75 0 0 1-1.443.027l-1.052-3.464c-.036-.119-.204-.118-.24.001l-1.005 3.455a.75.75 0 0 1-1.442-.008l-1.75-6.281a.75.75 0 0 1 .52-.924Z"/></svg>
